X:243
T:Hounds Tune
S:Dwayne Andrews, Crocus
M:4/4
L:1/8
K:D
ABAF EDDE |FDEC D4 | FAF2 E2D2 | ABAF EDDE | FDEC D4 | F2E2 D4 | ABAF EDDE | FDEC D4 ||
ded2 cBA2 | ABcd eeef | gfed cBAA | ABcB d4 | ded2 cBA2 | ABcd eeef | gfed cBAA | ABcB d4 |]
